X: 77
T: Słucháy/ wierny mój zborze, otwórz uszy swoje
C: Mikołaj Gomółka
%%abc-version 2.0
%%abcx-abcm2ps-target-version 5.9.1 (29 Sep 2008)
%%abc-creator hum2abc beta
%%abcx-conversion-date 2021/10/04 07:59:09
%%abc-edited-by Anna Matuszewska
%%abcx-initial-encoding-date 2020-02-14
%%humdrum-veritas 141844514
%%humdrum-veritas-data 2066880860
%%linebreak <none>
%%barnumbers 0
L: 1/4
M: C|
N: Derived from pl-wn--sd-xvi-qu-273--078_gomolka-mikolaj--sluchaj-wierny-moj-zborze-otworz-uszy-swoje.krn
%%staves [1 2 3 4]
V: 1 clef=treble
V: 2
V: 3 clef=alto
V: 4
K: F
[V:1] c4c4 [I:setbarnb 3][|] 
[V:2] A4G8 [|] 
[V:3] F4E8 [|] 
[V:4] F,4C8 [|] 
[V:1] c8 [|] 
[V:2] A3B [|] 
[V:3] E4 [|] 
[V:4] A,4 [|] 
[V:1] c2d4c2 [|] 
[V:2] c2B3A2G [|] 
[V:3] F2F4E2 [|] 
[V:4] A,2B,4C2 [|] 
[V:1] A2c4c2 [|] 
[V:2] A2A4G2 [|] 
[V:3] F2F4E2 [|] 
[V:4] F,2F,4C2 [|] 
[V:1] A2B2G4 [|] 
[V:2] F2F4E2 [|] 
[V:3] D2D2C3B, [|] 
[V:4] D2B,2C4 [|] 
[V:1] A2G4G2 [|] 
[V:2] F2E4E2 [|] 
[V:3] A,2C4C2 [|] 
[V:4] F,2C,4C,2 [|] 
[V:1] A2F2B4 [|] 
[V:2] F2F2GFGF [|] 
[V:3] C2B,2B,4 [|] 
[V:4] F,2D,2_E,D,E,F, [|] 
[V:1] B4A2G4 [|] 
[V:2] DCDEF2E4 [|] 
[V:3] B,4C2C4 [|] 
[V:4] G,4F,2C,4 [|] 
[V:1] G2A2B2 [|] 
[V:2] E2F2D2 [|] 
[V:3] C2C2B,A, [|] 
[V:4] C,2F,2G,2 [|] 
[V:1] c2>B2A4 [|] 
[V:2] EF2EF4 [|] 
[V:3] G,F,G,2F,4 [|] 
[V:4] C,4F,4 [|] 


